X: 1
T: Old Maid, The
M: 4/4
L: 1/8
R: reel
K: Dmaj
dBAB defe | dB B2 e2 fe | dBAB defe | dcBc A4 |
dBAB defe | dB B2 e2 ef | defg agfe | dcBc A4 |
f2 ag fedc | dB B2 e3 g | fgag fedc | dcBc A4 |
fgag fedc | dB B2 e3 f | defg agfe | dcBc A4 |
